T: Lucy's Fling
M: 4/4
L: 1/8
K: Gmaj
A>FE>F A>Bc>e | e>cB>A B>AF>A | A>FE>F A>Bc<e | e>c (3BcB A2- :|(3fae f>e a2 g>f | e>c (3cBA B>A F2 |1 (3fae f>a a2 g>f | e>c (3cBA B2 :|2 A>FE>F A>B c2 | e>c (3cBA B2 A ||G>ED>E G>A B2 | d>B (3ABG A>GE>A | G>ED>E G>AB>e | d>B (3ABA G2- :|(3egd ed g2 fe | dBAG AG E2 |1 (3egd ed g3 e | dB (3ABG A2 :|2 G>ED>E G>AB>e | d>B (3ABA G2 ||
